icons/desktop/16/svg/color-picker-16.svg

<svg width="16" height="16" viewBox="0 0 16 16" fill="none" xmlns="http://www.w3.org/2000/svg">
<g clip-path="url(#clip0_9096_39946)">
<path d="M13 10C13.4142 10 13.75 10.3358 13.75 10.75V12.25H15.25C15.6642 12.25 16 12.5858 16 13C16 13.4142 15.6642 13.75 15.25 13.75H13.75V15.25C13.75 15.6642 13.4142 16 13 16C12.5858 16 12.25 15.6642 12.25 15.25V13.75H10.75C10.3358 13.75 10 13.4142 10 13C10 12.5858 10.3358 12.25 10.75 12.25H12.25V10.75C12.25 10.3358 12.5858 10 13 10Z" fill="black"/>
<path d="M7.50098 0.000976562C9.23893 0.000976562 10.7057 1.17699 11.1377 2.79492C13.2567 2.72892 15.001 4.45831 15.001 6.57031C15.0009 7.07417 14.8871 7.55409 14.7012 8.00098H12.958C13.2929 7.60206 13.5009 7.10818 13.501 6.57031C13.501 5.31531 12.4806 4.29395 11.2256 4.29395C11.0648 4.29398 10.8941 4.31731 10.6904 4.36621C10.4706 4.42116 10.2434 4.37105 10.0635 4.2373C9.88448 4.1043 9.77367 3.89687 9.76367 3.67188C9.70661 2.45493 8.71394 1.50098 7.50098 1.50098C6.28803 1.50099 5.29534 2.45494 5.23828 3.67188C5.22828 3.89582 5.11837 4.1033 4.93945 4.2373C4.75945 4.3723 4.53152 4.42221 4.31152 4.36621C4.10785 4.31731 3.93716 4.29398 3.77637 4.29395C2.52237 4.29395 1.50098 5.31531 1.50098 6.57031C1.5011 7.42508 1.984 8.19883 2.76074 8.59082C2.96674 8.69482 3.1132 8.88726 3.1582 9.11426C3.20308 9.34112 3.14109 9.57509 2.99121 9.75C2.73626 10.0469 2.43077 10.5438 2.43066 11.2246C2.43066 12.4786 3.45203 13.5 4.70703 13.5C5.62802 13.5 6.45362 12.9496 6.80762 12.0977C6.92365 11.8177 7.19705 11.6357 7.5 11.6357C7.69099 11.6357 7.865 11.7139 8 11.8369V14.2129C7.82301 14.0759 7.65099 13.9316 7.5 13.7646C6.79801 14.5376 5.79302 14.999 4.70703 14.999C2.62503 14.999 0.930664 13.3056 0.930664 11.2236C0.930722 10.6128 1.08505 10.0096 1.375 9.46875C0.512158 8.76182 0.000107539 7.71015 0 6.56934C0 4.45834 1.71926 2.73392 3.86426 2.79492C4.29629 1.17699 5.76303 0.000987102 7.50098 0.000976562Z" fill="black"/>
</g>
<defs>
<clipPath id="clip0_9096_39946">
<rect width="16" height="16" fill="white"/>
</clipPath>
</defs>
</svg>

<!-- This Source Code Form is subject to the terms of the Mozilla Public
   - License, v. 2.0. If a copy of the MPL was not distributed with this
   - file, You can obtain one at http://mozilla.org/MPL/2.0/. -->
<svg xmlns="http://www.w3.org/2000/svg" width="16" height="16" fill="context-fill" fill-opacity="context-fill-opacity" viewBox="0 0 16 16">
    <g clip-path="url(#clip0_9096_39946)">
        <path d="M13 10a.75.75 0 0 1 .75.75v1.5h1.5a.75.75 0 0 1 0 1.5h-1.5v1.5a.75.75 0 0 1-1.5 0v-1.5h-1.5a.75.75 0 0 1 0-1.5h1.5v-1.5A.75.75 0 0 1 13 10M7.501.001a3.76 3.76 0 0 1 3.637 2.794C13.257 2.729 15 4.458 15 6.57c0 .504-.114.984-.3 1.431h-1.743c.335-.399.543-.893.543-1.43a2.28 2.28 0 0 0-2.275-2.277c-.161 0-.332.023-.536.072a.74.74 0 0 1-.626-.129.75.75 0 0 1-.3-.565A2.267 2.267 0 0 0 7.5 1.5a2.267 2.267 0 0 0-2.263 2.17.748.748 0 0 1-.926.695 2.3 2.3 0 0 0-.536-.072A2.28 2.28 0 0 0 1.501 6.57a2.26 2.26 0 0 0 1.26 2.02.75.75 0 0 1 .23 1.16 2.25 2.25 0 0 0-.56 1.475A2.28 2.28 0 0 0 4.707 13.5a2.27 2.27 0 0 0 2.1-1.402.75.75 0 0 1 .693-.462c.191 0 .365.078.5.2v2.377a4 4 0 0 1-.5-.448 3.77 3.77 0 0 1-2.793 1.234 3.78 3.78 0 0 1-3.776-3.775c0-.611.154-1.214.444-1.755A3.74 3.74 0 0 1 0 6.569c0-2.11 1.72-3.835 3.864-3.774A3.76 3.76 0 0 1 7.501 0" />
    </g>
</svg>
